public/icons/bd.svg

<svg width="30" height="30" viewBox="0 0 30 30" fill="none" xmlns="http://www.w3.org/2000/svg">
<path d="M27.5 3.96252H2.5C2.16848 3.96252 1.85054 4.09422 1.61612 4.32864C1.3817 4.56306 1.25 4.881 1.25 5.21252V20C1.25 20.3315 1.3817 20.6495 1.61612 20.8839C1.85054 21.1183 2.16848 21.25 2.5 21.25H12.5C12.6658 21.25 12.8247 21.1842 12.9419 21.067C13.0592 20.9498 13.125 20.7908 13.125 20.625C13.125 20.4593 13.0592 20.3003 12.9419 20.1831C12.8247 20.0659 12.6658 20 12.5 20H2.5V5.21252H27.5V20H15.625C15.2935 20 14.9755 20.1317 14.7411 20.3661C14.5067 20.6006 14.375 20.9185 14.375 21.25V24.7625H10.625C10.4592 24.7625 10.3003 24.8284 10.1831 24.9456C10.0658 25.0628 10 25.2218 10 25.3875C10 25.5533 10.0658 25.7123 10.1831 25.8295C10.3003 25.9467 10.4592 26.0125 10.625 26.0125H19.375C19.5408 26.0125 19.6997 25.9467 19.8169 25.8295C19.9342 25.7123 20 25.5533 20 25.3875C20 25.2218 19.9342 25.0628 19.8169 24.9456C19.6997 24.8284 19.5408 24.7625 19.375 24.7625H15.625V21.25H27.5C27.8315 21.25 28.1495 21.1183 28.3839 20.8839C28.6183 20.6495 28.75 20.3315 28.75 20V5.21252C28.75 4.881 28.6183 4.56306 28.3839 4.32864C28.1495 4.09422 27.8315 3.96252 27.5 3.96252Z" fill="#736AE4"/>
<path d="M12.2625 8.88751C12.133 8.78532 11.9683 8.73849 11.8044 8.75722C11.6405 8.77595 11.4906 8.85873 11.3875 8.98751L8.88752 12.1125C8.79589 12.2208 8.74561 12.3581 8.74561 12.5C8.74561 12.6419 8.79589 12.7792 8.88752 12.8875L11.3875 16.0125C11.4444 16.0876 11.5182 16.1482 11.6029 16.1895C11.6876 16.2307 11.7808 16.2515 11.875 16.25C12.0158 16.2482 12.1521 16.1999 12.2625 16.1125C12.3913 16.0094 12.4741 15.8595 12.4928 15.6956C12.5115 15.5317 12.4647 15.367 12.3625 15.2375L10.175 12.5L12.3625 9.76251C12.4647 9.633 12.5115 9.46832 12.4928 9.30441C12.4741 9.1405 12.3913 8.99064 12.2625 8.88751Z" fill="#736AE4"/>
<path d="M17.7375 16.1125C17.8479 16.1999 17.9842 16.2482 18.125 16.25C18.2192 16.2515 18.3124 16.2307 18.3971 16.1895C18.4818 16.1482 18.5556 16.0876 18.6125 16.0125L21.1125 12.8875C21.2041 12.7792 21.2544 12.6419 21.2544 12.5C21.2544 12.3581 21.2041 12.2208 21.1125 12.1125L18.6125 8.98749C18.505 8.87362 18.3587 8.80425 18.2025 8.79309C18.0464 8.78194 17.8917 8.82981 17.7691 8.92724C17.6465 9.02467 17.565 9.16456 17.5406 9.31923C17.5163 9.47391 17.5508 9.63209 17.6375 9.76249L19.825 12.5L17.6375 15.2375C17.5353 15.367 17.4885 15.5317 17.5072 15.6956C17.526 15.8595 17.6087 16.0094 17.7375 16.1125Z" fill="#736AE4"/>
<path d="M17.5 8.37505C17.5663 8.20929 17.5641 8.02398 17.4937 7.85988C17.4234 7.69579 17.2908 7.56635 17.125 7.50005C16.9593 7.43375 16.7739 7.43601 16.6099 7.50633C16.4458 7.57666 16.3163 7.70929 16.25 7.87505L12.5 16.6251C12.4669 16.7005 12.4491 16.7818 12.4475 16.8642C12.4459 16.9466 12.4607 17.0285 12.4909 17.1052C12.5211 17.1818 12.5662 17.2518 12.6235 17.311C12.6809 17.3702 12.7493 17.4174 12.825 17.4501C12.9074 17.4676 12.9926 17.4676 13.075 17.4501C13.197 17.4505 13.3164 17.4152 13.4186 17.3486C13.5208 17.2819 13.6012 17.1868 13.65 17.075L17.5 8.37505Z" fill="#736AE4"/>
</svg>

<svg width="30" height="30" fill="none" xmlns="http://www.w3.org/2000/svg"><path d="M27.5 3.963h-25a1.25 1.25 0 0 0-1.25 1.25V20a1.25 1.25 0 0 0 1.25 1.25h10a.625.625 0 1 0 0-1.25h-10V5.213h25V20H15.625a1.25 1.25 0 0 0-1.25 1.25v3.512h-3.75a.625.625 0 0 0 0 1.25h8.75a.625.625 0 1 0 0-1.25h-3.75V21.25H27.5A1.25 1.25 0 0 0 28.75 20V5.213a1.25 1.25 0 0 0-1.25-1.25Z" fill="#736AE4"/><path d="M12.262 8.888a.625.625 0 0 0-.875.1l-2.5 3.125a.6.6 0 0 0 0 .774l2.5 3.125a.6.6 0 0 0 .488.238.625.625 0 0 0 .488-1.012L10.175 12.5l2.188-2.737a.625.625 0 0 0-.1-.875ZM17.738 16.113c.11.087.246.135.387.137a.6.6 0 0 0 .488-.238l2.5-3.125a.6.6 0 0 0 0-.774l-2.5-3.126a.625.625 0 0 0-.976.775l2.188 2.738-2.188 2.738a.625.625 0 0 0 .1.875ZM17.5 8.375a.673.673 0 1 0-1.25-.5l-3.75 8.75a.625.625 0 0 0 .325.825.602.602 0 0 0 .25 0 .626.626 0 0 0 .575-.375l3.85-8.7Z" fill="#736AE4"/></svg>
